-----BEGIN PGP SIGNATURE-----

iQJPBAABCAA5FiEEjul+MlFdBRiYsYZK9sVjO+XecScFAmjpLdQbFIAAAAAABAAO
bWFudTIsMi41KzEuMTEsMiwyAAoJEPbFYzvl3nEnVP4P/RbR1UuLHga/U2x/yKjX
Amn6047uT3K3Q9Sh3010tu8nJwJl5+yexYFSu+e17km1dCAVov+kugLi6MvrSLzV
1yq5t9uCDANgNNCamIBZGw+A0QSxqvcVCCl4yk6gJipy4ZyMurQGQv0XNKZ7bwBx
XaIUFaPOZNmCGOzkv9R0HnvwatyZNNLSydFHitlpdcCSpnWa8mrPVpO6WcesHsKb
pFXaEqBt4lAcloNhPNGKV/JpkBuCISfh0oDCZqvQ1C+gDccDyZrpT1N64s04b1in
iUB4DHhMhCDPb9Nh1qHkfxC4f4s8IZ8IIfsLzy8iCShgosTX+XgK5tcWGJz+j67N
fz2uqiLQexOSbK7LIEjNRninY7f48K3rXr03/QOc/rM02cFn7uFhcjRQPyA91USP
4r2sWpYTLdDUhaU5BRcMAwmClYOjox8h3LZocjhFJijuXBTDTST8ThWi4DL3QHNH
DnmLwjTq2p0nJsx4fOM8QCWqRhI6miISyZ4cznSDXkXEEVtIpd1Yu3Z83eJslEc5
m7Pn4HklVnN84b2q9nExQNeGCLhS40vmOu0kOVT5ZeZYjZmBXCwuKw+Fp41jdyH0
sevOYWnZYJn/GwBccKBmsBP9515TnfMcbDMV4P8RGVRlVHXW0DjolQFX62Z39612
Hx9UJxPMdRDyvZuepZsUsu29
=RRPi
-----END PGP SIGNATURE-----
