/* XPM */
static const char *background[] = {
/* width height num_colors chars_per_pixel */
"    80    80       27            1",
/* colors */
". c #5f96d6",
"# c #5990ca",
"a c #5991d6",
"b c #5f96ca",
"c c #5f97d6",
"d c #5992ca",
"e c #5993d6",
"f c #5f99e0",
"g c #5f99d6",
"h c #5f9be0",
"i c #5e9bd6",
"j c #5d9be8",
"k c #5c9be0",
"l c #60a2e0",
"m c #61a2e8",
"n c #69abe8",
"o c #70b5e8",
"p c #67abe8",
"q c #77bfe8",
"r c #6cb5e8",
"s c #91d8ef",
"t c #7fcbe8",
"u c #9de5ef",
"v c #81cbef",
"w c #8bd8e8",
"x c #a9f2ef",
"y c #8bd8ef",
/* pixels */
"gggggiiiihhiffiffghfgfhhhhhhhhhkkkllmmppnpppprrrrrppppppnppnmmmllkkkkkkhhhhgffff",
"fhffiiieihhhhhfihhhhhehhfhhhhhhhkkkkklmlmlnppnrrorrnppnpppppnnnmmllkjjkkkhhhhhhh",
"hhhhhhhhhhhhhhhhhihhhihhhfhhihhhkhkkkkmlmlplpnnorrnpporrorppnnpnlplmmljjkkkkhhhh",
"kkkkkkkkkkkhhkkkkhhhhhhihhfhhhhhhkhhkkkkjmmlplpnnppnoroooooporrpppppplllljjkkkkk",
"kkkkkkkkkkkkkkkkhhkhhhhfeiffffhhihhhhkkkjkkmmmppppnnnooorrorrroonpnnpmmmljmjkkkk",
"klkkkkkkkkkkkkkkhhhhhihhiieiifhhheeiihhhhkkkklmmlpnnonoooororrorrrrronnplmmmmjmk",
"mjlmllkjkjkkkkjjjhhkhhhhhihfeeeefgeeeffihhhhhkjmllpponpooooroqqoooooorppnpnplmml",
"mmlmlllmmllklkkkkhhhhhhieihigeieggeeegiegehhhhhkkllllplnoooooqqqorqooooronnnnnpl",
"plpppplmlmlllkkkjjkkhhhieehgggeeceeeeceggeghhihhhkjkllnrpooroqqqqrooqrrrpponplpp",
"plpnlpplmllmlkjjkjkhhhieeefegecccbbbbdddeeegehefhhhkklllpnnrorqrqrqqqqqooonplrop",
"pponlnppmlllllllkkkkkhhihfieggcdebbbbbd..ddbeegfehhhkkmmmnnnnrorqrqqrqrooorrooro",
"ppnnpplplpmmlmllmmkkkkhhfiiegceedddab.dddadbddeeegeihhkkmmponoorqorroqqoqoorrrrp",
"oonooonpnpppllmmlkkkkkkhhheggcceeddd#a######.bdeeeegehhjmmmlnnporqqoqqorqqrrrrrr",
"rrrrrrprppnnnmpmlklkkkkhfhiieeeee..add########ddddegeihhkjmlppnrrorqoqooqqrrrorr",
"ooooooooooppnnpnmmmmjjkkhhiegeeeeaaad###########abbcgefhhklmplprroqqqqqqqqrorqro",
"oqqooooooonronnnmplmmlkkkhhfhfecc..d.d##########b.a.cehfhhkjmmnpproooqqqqqqqqqqq",
"qrrrrooooooonnnnppmmlmlkjkhhhhfgcccc.bd##########aadecgehhkkklmpnpooooooqqoooorr",
"rqooqorqqqorrorpppnnnmmllkkhhifffgcbc.bdb##########d.ccgfhhkjjlpppooroooqqqqqqqo",
"qoovovvrqvoqroorrrpppmnlmmjkkhhhiegeeeda#d########adaeeegihhkmlmpprroorqoqqooooo",
"qrrqvvvqovovqqqoorronppmpmljkkkhhheggcedddab#######addeegeihhjjmpnnooorqqorooooq",
"qqqvqqoqqqqqoovvqoroponnnpmmjjjkhhhhfeceedddd###bb#db.eccehhhkjmmmnnroooororooqo",
"qqqqqvvqqvooqvvvvvqqorrrppnnlmmjjhhhigggceead#b#b#babddccgiehhkkmnpppproorqqqqqq",
"qqqvqvvvqqqvvqqqqqovoqrooopppmmmjkkhhhffccedddbdb#.abb.ccgeihkjjmmlpprrororrqroq",
"qqoqqqqqqvqqqqvqqqqqvvvqoorrppppmlkkkhhiiggcbeeddaddd.cccgghihkjjlmmnnprrrqorqqq",
"qqqvqvvtqqtqttvqqqvqqqqoqqorooppmmlkkhhhhgggcccbadddddeeeeeeihkkkmllnnnooooqoroo",
"qqqqvvvqtvqqttvtqvttqvvqqqrqorooppplmkkkhhhgeeecdeeeaacccgffehhkkkmplppoooorqorq",
"qoqvqqqqqttqttvtvvttttvqqqvvqqooppnmmlkkkkhfgheeeeeeeeeecgffehhkkkmmpppprorooror",
"ooqqqqqqttvvttttvvvvtvvvttvvqqqooropmpmmkkkhhhffggcceeeeeeeifihhkklmpnpnnoorqrqo",
"qqovqqvqttvqtttttttttvvvvvvvqvqoooorrnpmmjjkhhfhffgeeeeeeeegehhhkklmmppproroorqo",
"rqqqqqqttqttvvttttttttttttttttvqqororopmplmjkhhhfheffgggeffhhhhhhkjmmpnprorroqoq",
"orovqqvqqtqvtvvssyvsvstttwttttttqqvroopnnpmlkkkkhhhihgfgfiiefhhhhkjmmpnpprroroqr",
"roqqqqqqqqqvtvtttttvyywwwwstvvvvvvqqqqoropmpmmjjkkhheeeehhhfhihkhkjmmlppprpooooo",
"qqqqqqqqtvvtvtttttwvvswwwvtyyvvtttttqqvqooonpmmjjkhhhhhihhhhihhhhkmmmnnppppooooq",
"rorooqqqqtvtvttttttvvvwwvwywssywwttvtqvvvroopnlmmmkkkhhhhhihhhkkkkjjmmlppprrooro",
"qqqqqqqqqtqqvtvvvsvvtstvwswyywywwwvtvvtvvvqronnmmmjjjkkkhhhhkhhkhklmmlmpnppprooq",
"rorrqqqqqqtqttttttttvtvtytswyyywwywstwtvtvqooonnnnmllmjjkhkkkkkkjmmmmlnnnppnoooo",
"qqqoroqoqqqqvqvvvvsswvwvwywssssssyswwwtsvvtqqqropppnmmlllkkkkkkjjjmmmlmnnpprrroq",
"orqqqrqqqqqqtttvvvvvttvtswssywwwusywswwwsvtvqqoqorrnnplmmmmmlllmmmmmmnlnpprrroro",
"oorqqorqqqqqqqvtttttttwtwvyyswysssuyyssssyvsvqqovoooopppnmmlmmmmmmmpnlpnooorrooo",
"orqqrqvoooqqqqtvvvtvvvvvstsvywwwyswywywuyysysvvtvooqooonnnmplmlmmlmlplnnrrooooro",
"qqqqorrooqqqqqqqvvtvvvsvvsytvwsssyuuuuuuysyysvstvqqqqororppnpnpnnnnnpnnoooooooqq",
"orrqrooqooqqorqqvqqtvvtttttwtvysywywwwwyyyuwsssysvvtvqvvooooonppppnpprppprrrooro",
"qqqrorooooqrrqqqqqvqqvqqtqttttvvyywywywwwuyyuwssssysvtvvvqqooooorrprorrrrroorrqq",
"orqoroqooqqqoqooooqvqqvqqqqvvvsvvvywssuuyyuyuuyywysyywvvtvqqqoqooorroorroooroooo",
"qqrqqqqrroooqoqorqrrovqqvqqqvttttvvtwssusuywuyyywussssvsvvtqqvvqrqqqqrrqoqqqqooq",
"qqoorrrooooooorooooqrrrrvovqqqqqvvvvvtwwysuywyxuyyuywwsyvvtvvvtqqqrqrvqorqoqqovq",
"qrroooooroorrrrorooorrooooooqqovqqvvvtvswwwyuuuuxuxyyyywsywwttttttqqqtqovvqvqqqq",
"rqvvvqroorroooorrppnprppnororroqvoqqvttvwwsssuuuyyuyuywyuuusyssvwvtttqqqqqqrqqvq",
"qqqorrooroorrroornnpnnnnppnnprroorqvvqqtvvsywysuuxuuyyyuxxuuuswswvwvvvvvqtqvqqqq",
"qqqvoqroorrooppopnnpppppnpppppnpnpoorovqvqttwwsyuuuxuyxxyxxxuuywwsyvwtwttttvvqqq",
"qqooororroorppnppnnmnlmlmnmmnnnppppprorqooqqqtsyssuuyuxxxxxxyxxuuusyytsvvttvvqqq",
"qqqrorqrrrrooonnppnlmlmlmlmlmlmmmmmmnnpporovqqvsvywwwyuxyxxxuyxxxuuuswysvvtvttvt",
"qqroqrorooorpnnnnnppmmmlmlkkkkkkkjlmmnpnnporoqqvvvswwuwuuyyuyxxwuwyyuuswwwttttvq",
"qqqqqrqorrrororrpnmllmlmkkkkkjkjkkjjmklmnppproqvvqvvvsuyuyuxxxuxxuyuuuswywttttqq",
"tqqqqrooororrooonppmlmlklkkkhhhhhkkkkkjmlmmpnnoroqvvvvssywwuxyyxwyuxuuuwwyvyvttv",
"tqqovroroooorpoprppmlmlljjkkjkkhhhhkhhkkkkknmppporovvtttywwyuuyywuwyywuwswyyvttv",
"qqqqqoqorroooororrnnnmmmmkkkkkkhhhhhhkhhkkkmmnmnnrorvqvtttywyywyyywuuuuywysttttv",
"vqqqqqqooqoorqqorrrnpppnmllmkjkhkhkhhhhhkkkkkjlmnpnpooqqqtttywwyyuuuuussywvvvvvv",
"vqqqqrqqqqrqqqvqqoooonnppnpmmmjkkkkkhhhhkhhhjklmmnpporoovqqvvttssywyssyswwttvvvq",
"qvqqqoqvvrqqqvvqqqvvqrorrnnpllmlmkkjjhhkhhhhkkkmmmnmnnnorvqvqttvvtvwtwtywtttvvtq",
"vqqqqqqqqqqqqqqqqqqqqorooorppnpmmmlkkkkkjjjkkkjjjlmmnpprroqqqqtvvttttvvtttttvtqv",
"qqqqqqvvvqqqtqvvttvqtqqqqrqoronnnplmmmmlkkjjjkjjjmlmlppppprqoqqqqqtttvvtttvvtttq",
"qqqqrqqovvqqvqttttttttttqqqvqqoroonnppmmmmmjjjjjjmmmmmpmpprroovqqqvqvvtttqqvtqqq",
"qqvoqqqoorqqqqtttttttwttvttvqqoqoooonppppnmmmlmmmmmmmmpppppppoorrroooqqqqqqqqqqq",
"qorroorrrrqrqqvvtttvtttvttvvvvqvqooropprppppmlmmmmmmmplmnpnpnpopprrorrroorqooqro",
"rrrrrrnnoroorqrqvvqtttvttvttvvtqvvqqoorrpnnlplmpnpmpmmlmppppnllpoopproorrrroroor",
"prpnnnpppnnpnprooroqovqqvvqqqvqvqqrqroponrplmpnmmmlllmmmpmmpplpplmppnrlpprnonnnp",
"pmlmlmpmlmmnlppppnoooooooqqvqqqqrqrrqroonlppllnnlmnlmmnmnmmnllmmlpmmpmpppnnpplpp",
"mmmlmlllkkkkkkjjjmlmppnppooorqoroorrornonnppppnmpmmmmmmmmmmmmllllmmmmmmllmnlmmlm",
"kkkkkkkkkkhhhhhkkkkkjlmmpppnnnnrroorrrrrolplpmnmmmlllmjlkmljmllkkkljjklkkllllkkk",
"kkkhkhhiiiiihhhhhhhkkjkjjmllpppnpppnnonnnnpnpmmmlkljjjjjlkkmkkkkkjjkkkkkkjkkkkjk",
"hhhhiiiiiiiigggegieeihhhkkkkmmmllpnnplolpnlnnmlklkklkkkkkkkkkkkkkhhhkkkkhhkhhhhh",
"hhhhiefgeeeeceeeeeeeeefhhhkkkjjlmmmmplllnmnmllkkkklkkkkkkkhkkkhkhhhkhhhhhhiihhhf",
"gieieegggdeecdeceeeeeeeeeihhhkkkkkmmmmmmmmmmljmjlkkkkhhhkkhhkkkhhhhhhhfffhfhhiih",
"geggeeeeedceebcccbcgeegeiehhhkkkjjmllmmmmmmmmmjjllkkjkkhkhkhhkhhhhihhieiiheieeif",
"igeeeeeeccceddbbbcbcceeefehhhhkkkjkklmmlmlmmmmmmjlllkkkkkkhhkhhhhhhhhfheeifgfege",
"gggegggggbcccbcccccccegfihhihkhkklllmlmlmlmlmpmmlmmmjkkkkkkhkhhhhhhefhihifggegeg",
"eggeggggggeeeeeeedecgeegehhhhhkkkklllmmnmlnlmnmpmlmmlkllkjjkkkkkkhhheeeieehfeege",
"ggeeggggggeeeeegggggeeefehhhhhhkklkllmpmpnnnppppnlmplmmmmmkllkkkhhhhhhhfhihfegee",
"ggifffhhiiiiggeegegfheeeeifihhkkkkklnmmppppppnnppnnnmpnplmlmmmmjkkkkhhihhhhiffif"
};
