-----BEGIN PGP PUBLIC KEY BLOCK-----

mQINBFljlBcBEACuCSBlN1vTS9eEDqowZcLAAF8NytcTlRjXTLWMQtjU+fXkz9Vz
10n9TIFj9Kcec0p0+8F+SowybecwhmYoUzhKI7S9M1ziUmaIhFs2KvZ1GzigE/W5
L448P/7pugh875e1tIrkrbbcIp6+SxaLbgvXlFl630ILZl/gbYOa/Wk21sLu4RjQ
Y39oHb0WTiwPnKhdMdwlnxm6HeWkHzlvI9N8tlDc6oVnUfqVI8gUyExLnEYjDpZf
orTVgHRq6RNyfTRZkh8zRsXSTnJlk/bVEDW5i/VgIQugzkgpuTGWlCstryi/MRhe
NxU1YEUenT69okb96QStfr1J00n8L4VAs8V5IuFUcSc8UqSpB+LgERRTMRFo9IrE
XAW/gEKlEVR+501BvJ0/Qggxbgz4PEnKNaxXmAnykJzot2VDKTzrr26a9LnrT0GW
om9rg89Ih876PA53vUXBB+FWP9QOFDcOfz3nMjCrLbMzhTsAzrNFXxchzLq+66CL
qsQQytDVFpLI+X++sKRTOHkq6vV1bAPjlljrannLnn1y/DvkOOkiHOdYyjmR7Dfk
vxgcWh/3Gx4J9gipxZITOr7LamEYgHfElY/UWCtc1Vjt8Xvgt4dofDpvSwY9YzgR
WxJKC5ewYdqTCI+zxL1f0fjkeiRYNi959UMMjgdcY7Zpi8oPPQmlyBw15QARAQAB
tCZEYW5pZWwgU2Fsem1hbiA8ZGFuaWVsLnNhbHptYW5AbmljLmN6PokCPQQTAQoA
JwUCWWOUFwIbAwUJA8JnAAULCQgHAwUVCgkICwUWAgMBAAIeAQIXgAAKCRAQu3r2
/rvWq1+eEAClhOEK2MZOz+nwJSeX7iINKbw477Y+LSvYkKG81pve+xtblQEn7rI3
cYnDrqlUb3bXdbMHujYrg1fPoccpCvf6d/JvlN6WXCE25R+GR6vxr6v7jycHdSOb
Fe4sTcwce6IViwiWiSizh4UCkz8285LjLcf3AnT2v6GJwHiZbPOeMQUNIRj6PEYL
SQsq0ZlqEx8LGKLTc5Ukrkoi4lN44SI1rzSwDPIqvlvrVnDXcDB8M7E2Ii51zU8/
TVk920KeayUeCPxpmgQW3USI45NrE/jEgyodyxMGp5lg3OqzHT2wu9BVLWkQvTjF
fLfEsTay4K4kUSbYzbpS93b33J+I20rYLGBBYlTrN5417IgF6Bb8NzyrfVy1Wdqh
cggAEKX5EkOmZM8oduRxsHqiRLC/xKF8GqTo6t3GMS5i8RClNvmdq0WUkQUvld4b
OnXBCZ2QLbjV7sXjcr56ee+qdpiuRQjEidjHzpibcIBN8LVupVgXAZl9lsiBtoJX
OHsvSdU3VgGWnRGtzFjSHzl3TRPIsaVVqD7aCzQDfXDjrGlmhzgDfMwkqmBGgsku
8tSR3Ag0MRAouJFXiZrcM3XGeYVbHT6dt7UMAB27Xc5foc0kGRo5tzlK6rWG2sJI
lcQB7tKvwI/tE9lwJDjw+XNekEdIpcdcQ7mWa1COYkcYTre3oPmN+4kCVAQTAQoA
PgIbAwULCQgHAwUVCgkICwUWAgMBAAIeAQIXgBYhBHQvpOlYKbbF6sa4VxC7evb+
u9arBQJcZrrTBQkGxY28AAoJEBC7evb+u9arU78QAJOVSul2YTXediwcY1YtpAli
KtHcjOS5PzaezB4c+E89xw6x/XO76KLI6+7GFrcGallPPCHXQfseQh5FmlZ2VMMT
5+f/eTY/s9kwhexAarW8AE8GeKZ/ejt6AqCokjbD/75Sfkx+F6/1Vg20kOoma8Uy
QyIozmUOue0z0VYR3uHJw6BIncGtkuxt5IHzXw5AsAtdNqneuRg5Ibx1gmJqW/Xa
M3cPo2WwF5Arh6JjGZTkUaiBcc4miUS08nqT6hvmxFY9X9KvWMl/NeMiom09HcV+
JJnrjf1hoW4uy4DxEo6Mt34iZddsjCw3x1Qmgs70BonKpBjCY6fE6KU66c6ykOdt
vx0QrqUnODoHOEyN54TREw+PZDftkfgchwg1nN1SQeWvQ9JGRNKOuQhEGrRq1Wxa
HUH2N6rQP283fnFSrABHTk1laqKwXDMI7IdGChc/QtiHso5gjCi2OdVpuQfp19e6
8U7+ZWSq71HhFWsR9Y1QlXfV6ADEXtemV/iXA5No1TUTvUmvo7T2k7LBlrSWd+gJ
MyxMn/aUroVm2InU3jPwRUPySUJcX1EZrbWgi/scbKcryJQoH5BEEdOr72V9vNt7
o6dlMgnYoSkv3JVpJW4T6+PY8HanVFuFNWqOg5fg7xM5CCL7gqVSuWExK1X0rfqu
aeq5Pvm92kMrx+XkzqqFiQJUBBMBCgA+AhsDBQsJCAcDBRUKCQgLBRYCAwEAAh4B
AheAFiEEdC+k6VgptsXqxrhXELt69v671qsFAl+r3lMFCQoKsTwACgkQELt69v67
1qv/gw/+ILW7CAtgxuOI1h61sUq0YrjQRnnYlya3wk4tTlSqhBa+5fSjasHv5wZ8
TduWt99yWCmGpDs0Vxffb/jTKKwI40FgTtnzFKPTFtEymLgC1sTTbol3dcrzpX4J
vXMlVDdSjdkChdsdx6mFQWA1ZvdvUtIvBeVrP76mfDQi2fsVMWRoAk98BSQT5Som
vcluc9mMNuVcjiRUdmSqM1TVZarambkhNWelWWYJN1paljugL//TEZKcsFQWJpbf
ECdEnyqXPi9/Fi53/WhS9xi7AdYO8rx8lCurb0JpQwltHXXZcm5mSr99w+7XoUvu
efkSkW2Y5XFXp35dP7x8QeZ8zhSeHL5d187G0q5YKtK2D2M+sEyEDF9WCHya8x8t
b+mMv3LVkHf4mj2LQNGWUtOId08a+AgdOd45wKqG+Z92LXs7l9NMoDLdJGwfu48R
L2LrHfyDHzowUChr0762mdcCiJrBH7Lwmt5j4wRhrPKaPj1XcXQIi6srGcJRbhFa
76E54kPANDa42VzJwS9/4K+bA7uDYWCmMlXF6Uh/EiSoE3CLS6IMgs9BaOHCx4Rq
1+7/U0LQDwseMT8UV+AK0YiYeXpfnGX96nS9yPZtlyE5+96h5c6Vts6QEZo8hcR1
EXlVsf2NJleZxYELfvcLYPvIeS3qe5WNlCOSUvDAMh7fRwMkWL2JAlQEEwEKAD4C
GwMFCwkIBwMFFQoJCAsFFgIDAQACHgECF4AWIQR0L6TpWCm2xerGuFcQu3r2/rvW
qwUCYadEKgUJEZClEwAKCRAQu3r2/rvWq3QvD/9zDhZM18VNgeNAvWByx/lVOaJr
pxvciARgWEbgYYbYHxwH2JGMZjr0XFz5JzXkf+N7Yx92D5V7GwX90eGg+fTAyMNM
4TAfk1shzC9T/qej4cTUVwiunmikV1vXfv7mnjJHuOoeqrY1at5z4gWirXyyMKhN
pg/ebgpcQ7f+DxsLgNJFihU+w1eIFMKnGalrSBh62NIIJWsk+hdVaPse9XMhjigo
gQ3s7/Sy7hADV+tnwPv/s6xj1jBV+BQNdJZwYsMOXEEFBvNTbq57rzm2CyT3RKfG
9hp5SdDDQHmyxz96hHrZYl1v2h6qH8ors8EgA75Iy2qsEefJSSEbnSBoAypAof2Q
9lAgUw1SwZuQv/mLoubCVqi09HuVObyyKLFxzgyFRMvYwvJpDKmLhvAnqi4iXhqJ
QTRM5aJc1odsnCaGUO4Rpve5jT9jEGs4CE2zeAu5vGO1nSeVdcisPJ+o8ji3hFUt
W/tINkfTygwvLWlR+KO8YM8eTOXeI8m0dt4nPb6Ne1s1i/ipu4heS7XDyjvPB1/m
5kpmWIgnC6wQyD1a7beDh64sIybXvJzpmX0Xp1JiPdqC7gH5YFq0eznZ5JU+j6wB
Dtl+55I6D+IgUY2BV4rGXjXSxhn89gRKD8nxVUGhWY1lsGw0UtqGKiH6+GkP2pL2
k7Mz34W4LAKvwEtvnLkCDQRZY5QXARAA6RnxYG82/X+A49srgHR9yIxlHqSq6IhN
n+iJQ5lpVpfeBItOG4NDu4Aq5X41pAJ3NKxsCPV62gEald/C7gJrTI5rag/87GYF
Fo6QRrwGsWVGORGs9G1pBF7ZZwhPJwD3MeagGZNfWZzRxXefL1P3mrpO3etSEEwE
NHtCqEMP6x/JHh3SKonKAlL4xfj3F54aKj4upIcjxGBAJH8u66bN1GmYjstBzzbD
4TWNTwfKgp15XxjrTgbThFy7CBoOgcaApiYTPE7D5nB1+AyhGjnO3ZlNgy1ZIHVD
Fk6HEakaqKM9QlkJnZsB2+cTqXlV0etmFQsedCg2sUier0hhIrEOOtGQbY1P+0vv
+VRoaNym3ritl+70RG8WgrHNLMRHVGeLRq3gOFnt+d/3h7meAKbORW/ZY30Upwth
tlZYgciFzoDJCW8Be1i1X4toiUaMkFh79jd7YTvZ87+P4DllC9MNsoq5cY/bHBNZ
YtXf7y6XqVqYo2IbFUR3VXKtzSN5eYm5YpFPczzmg1bNgl3i6WBcOF4EPEJEVjZ+
u1r59NvfVLQ8XVh/QmLoG7x8oFcvhWctMy17Vdm4qZjpSA+B1sQocehdra+xT+PW
V0kcrYpsqwkYeFRQnJGqIupWHnotqGOBNAyQWIcjK6K5y0CeioJZpNN5Oe5XloMX
sYmgXsR+gTUAEQEAAYkCPAQYAQoAJgIbDBYhBHQvpOlYKbbF6sa4VxC7evb+u9ar
BQJhp0RdBQkRkKVGAAoJEBC7evb+u9araZ8QAIzWIN8OhaTyyeG451OGeu7+5xnY
muP7jTGlFuP4Q64Vt5WAc54dhILCy2pRImMl/0Mfjq3WOOdqSQViaoJpHFkgjy8z
9MFX/hZqLC57oDmNnI8X/bG/ApGMQD7UoeAH4recf7jmtqRyLUeDd2wOEsSRICty
czH/m43Uct4kShXP2ui1vqAP8p9UtfdImgyNWV91J35SjxSiFvp+YAuNn+jsnDiV
BzYJAlk/rdN1h6E+cDfp/GYaXDjVxLy8bipuEN5icZGMH20tkiVsvPQ5J++AOSre
I830E62IJBKU9kwQa9iSbWxtcnxJmOEVBGN2gJ+2WAd2uA9ZCCJafTXiVe57Icxd
2P5zRqrDn0bAmIyl04NKnVAnthQG+b6hEuuaKhTkj2TvhmXkH84BcAvKC82yNBc1
zrzxfLI/WPZJrh2IVhXWVhW13Yd6eUmqUk8p0hQ5ZhdL9D6fQJSXxkdiauMJov1C
njR/++NOtERBSk+7hbTb921q/brMZXgJ971u31b0sRoefybbbjHSWjNVSP6ENn44
eQfS06CUmc7oN18bGhHmlmhK4az9i5eQ4HlUE5K9f4z7yQRTM6XfIpzDrWOfFfaY
vYkcC6CbR8xnb+LOlqwKHzKVwoWGLSreeShqPfazQEjR3V52XdFmyVIrltj7JRxi
tW29kqO09AEalR9l
=t42C
-----END PGP PUBLIC KEY BLOCK-----
