-----BEGIN PGP PUBLIC KEY BLOCK-----

mDMEYXXaPRYJKwYBBAHaRw8BAQdAnW9BM4tCuWrGmpoFgolsZRCbDCdcj3HRZ61W
qCtlkCC0HE1heGltIEJheiA8Z2l0QG1heGltYmF6LmNvbT6IgQQTFgoAKQIbAwIV
CgIeAQIXgBYhBFbD53XnKwyLHAwb0LXbd0CbEbYBBQJhdeSgAAoJELXbd0CbEbYB
JSQBAJ3NPGsKDpk8CxCeQMbfRsV9CLRFP/6u3I6uZb93Q5H2AQDQtoMUn7MrbQTy
iIRN44RevvrxIhJULaiWtoHfVbghD4kCMwQTAQgAHRYhBOtPnlpg0yIyu1IVDBLI
eij+rGsgBQJhde0cAAoJEBLIeij+rGsgyPgQAI7lWGNZiVHAa/lEj/zGJATkHBZJ
gPVq0gFaW0OeWNXRnHhhMz0BGDBdxGxiOY7uXMj0xIWZs620UPSwCtqWgOaKCeCS
GkD/qeRoT6DTNKvstpMDE87MTiQZpyN5iw4ywxvwDkNqlCbAcCbN9hjSu/PNTOLQ
pyw0r0OjZqLI3SVOa4CQKAHiBnffE5JQWC41Tq58lbFi5yMDCa/wWxbmF3xp3Xf5
yLAt+L2ZBVQIvWCuGI1QPpS91vvSztc0rGw7aG5qCQIbHACOphsJSRDNpi/8DxCq
c/awFO7TibJtHSvqBtpdFFqxPvNqb84GkgFkELPhcxDrZG4afXvcjo/BNRCC7SRj
En+xfrvpmkJfijn5cqpyO75RpYcltBJLm4j2IqB+oysh/JzW4Ni074AGKEKRdMhf
SqDCq72v6AGUUkdEFry3v9sECH1iJUrM6XUvjCcqWfiL8f1H/oIUgy5oszGQByvO
v3XPmR9tjq95MsVBfuBUBeelGRjDZNIEJOEyW6zU2Pau9S/Ft1jubfW3l8v3c8cS
U4/Je8GxYB+ZcDosNH4J6lUzq1dsQaQf9Z80p8t2NGq7HRzsAm0CRCpZjA8A8uLO
7kFj7ilvr9A3ro30OlFg95DMsXxeT5ZN7lGeoWtoKsxBfGYnXM35+a9d0zVxV+Ah
3lS86hMf2z8cv3QotCJNYXhpbSBCYXogPG1heGltYmF6QGFyY2hsaW51eC5vcmc+
iIEEExYKACkWIQRWw+d15ysMixwMG9C123dAmxG2AQUCYXXbxAIbAwIVCgIeAQIX
gAAKCRC123dAmxG2AWzjAQCqoqvdKtkVs4HqC9DbqA2A4sCn1KW6c3LFez4eiDBg
3AD8DlX179iz72qZw+a4NdZI60cFBGRWtENih0wpRc3RgQKJAjMEEwEIAB0WIQTr
T55aYNMiMrtSFQwSyHoo/qxrIAUCYXXtHAAKCRASyHoo/qxrIGp3D/9dpQJ4R8Jq
KHIraIwkr4jbQvKT0S0wO6UgAs1AwltwxdvohRWtZqVgCIDRQfr4UHYR9uiCtrjM
UwslXgE5e/SQQSgNoI2DQqOjKzVomfpKiDd6YbNLpChWhDjEo5a93j+CsiuLk5ha
n6N8y6VhCb2w78fO82B0XhQo8IwSoWLkb1qrGyhqGMWjfe+RYo4LEL44bYG1YIWM
i4r54YdfL57bCCRRhTsTjl3p35n54re4JNihiZ2DxVWo+3r2gzyX4l+rG13c3sTH
qlm3EXTni37gn8ldp0tidLqTOnr+RY12VRUndfYdnVRxgJCAi/OLv9TLcczbpseF
nLmBeq7aPdHwP8fYQQ6ay/29Jr4M5mBeJ5CYTpZYjEuYq8kjgb8YFcSWzgsZRB5X
Y8ElA34DhmXzcW9xZUXx4sCNfvLqSfk8P8N7JDe9u0kO/z0iYhFurZD7vncq6WOF
XDHoB3umcsxiu34Qw4ReTuMAuHlJ4kRC0P3EiTfsXvfgrcEnd9ORd/S4hOo2Eh5O
G0tdm8AysLrBhE0Jj7VrmNGrbHp8fgsZ957h+qiGDV/vx7mNHchFnHPdt2gI8Xln
HAbLGc6FIeGiKPCSvkH7hrcEoetar75pTp9OecNHxU5c3FkKcUt8qYdFarJbJDZA
6lx8tGVclFUMC29X5lCCRmWBRtw5dhS3oYh1BBAWCgAdFiEEKsCkLvsLXLx6BALt
TclbbXvpiS4FAmF4Gs4ACgkQTclbbXvpiS7SHQEArhRTXgjIbI9LNLKkcVeWZtp2
bKm3viMczvv4iKFiDUcA/02depIPTGbkbx8INQ+DEIYFqDdEjwJyyR12Dpjw4MoP
iQGzBBABCAAdFiEEDotkQHn1md/B3cOXM0iIL2rGpMIFAmF+ctQACgkQM0iIL2rG
pMIXJQv6AoK9qbDcZdoPJPLG516i72w83Igp5ghsv57FXZ/wKSEvzhwhIaXEEdG+
73WSCpob+uafBA7vv7eI6Vpp2azsvCHZ393d1pGxuHW8GYPfG8vZQ+a9Er4kyWnt
mTEe0QVrcsYCtkp5M3uQRD0QyZYNNi8UllAGGkLGJ2RIojnIJXHNL0UxLq6IoMD1
8jEwYyYnlAU8g44QOr/ggYONCgAHIvoTmn+6955NvjYyb9uTp+/Jbs3rc3uIro1l
Gagx9GnZqZ/O3QVCAxzXN+RoJdBrYZFvtCTuQMbsoymBPsmNPmfO0/pGTZdKhivQ
dZ4tDDLO4yuNiE8rXCGP4RovSwk//0ROQZa/JpnAKU+a/8lSJYgk2iruFcDVl6/x
8/NwVLPlEwsf+p/2I+egssSWmShfc5fbTJ1bOvrKBCMvjPZdGZLQKQvaeEkV+U8/
HmV2uiLfv28EN+h8oinIIEpAoJ8yvfJMWYeyIH7m+IQesUj4vsclQfofit6Kgtu8
faf5OMrUiQIzBBABCgAdFiEEkf/gcA6AYZzrcyNcqI4j43dRTgAFAmGHoHMACgkQ
qI4j43dRTgBYdQ//V4J1VbOU0vNAvtJjZSXl16PppGtIuQm2loJ96CuzlVQ7ISjC
CVY8dXz1M9M2F1+ZN6+p5OTP7aLEjRZKZFofIWtOVoxJqsyPq1RiHxj9IQQo3wR7
2HS77pgJ3azCdJ1uxqdg4gkgF5m/KiL2w2ySe87IpHHUZKg20QxFIsK/MyLJKEX6
20R97usGKkHwrXyHmzylcMkuW/hb66zOlhWwqN4zqbG9z3awmcQYwtQ88tZqGcpK
OjcRhgfc/PxkRdw6X3V7tfQXthuX0x/Y3REBT/NXWgqls5vK+MpGYXX9RVSktG3g
5X78BAJnt/rdTfngXU8Uc0JDv592dffVl9WRS4sMG5E+tLCFzdfER6OQgAxcfnNt
nhAaQBbJRzo5JHofd+ESDmESicelSBGtHfQv5PkDXARhpFbYu+vkb2IhqmK68AG9
lyrUeErxORAt4y5ySEcTYSX4cqkskr1HPoASH21wAUZwElomRVZm1/ZBTZl+AdC6
4EOyIQbuVP/S5c6wz5Xxlj6Z2n8yBNTSvv71o30+PzlxaM3yJ48JsS67BqKp5Rlj
IkliKFVhnl29ZF24KP9ZW0z8a7J7sbSETGLpe9jyM02p80uG9E7XBySmcCH0FIBR
NGCRkuP8MgYTJCVFBt3gLM5cCrwvvUXdhEkkaXSqnNM+altMBm13jgrwfR6IdQQQ
FgoAHRYhBGnmRx464GUpdSmDLmug9aIDf09BBQJjjdtLAAoJEGug9aIDf09BXxsB
AL64puRKzRLTQNUiS72/c/fad+qlA0Xljb7M6r8oV0LOAP4jdMwtsMBx412h+hkq
vDDGJE6FnlPu9ic1YTDqEreEDLQcTWF4aW0gQmF6IDxwZ3BAbWF4aW1iYXouY29t
PoiEBBMWCgAsAhsDAhUKAh4BAheAFiEEVsPndecrDIscDBvQtdt3QJsRtgEFAmF1
5KACGQEACgkQtdt3QJsRtgE/zQD+NYXl1QYwwX47M51aa6u7gONpSo6GlqcfRu5z
WRU9QCEBAK3XYihb6ZjWFXTmtqOX8YulayI46NhaTzpbW1NIlN0EiQIzBBMBCAAd
FiEE60+eWmDTIjK7UhUMEsh6KP6sayAFAmF17RwACgkQEsh6KP6sayAyGA//W9fg
2qy8UEUFuuPI0wwchC2GsD74UK0xlmiNDeO5+LiM2fGmxx8HpKsGh23buONccfKD
mQ/x3otPYDJ2e2q9eSk+/tj3SIyMA9XsKAeYFMGHqIrJe0avAoiqNQEsLhzlQXe/
tflJQzeHzbG9h/jO5Ma4tqDqJgC6yuuHdgdGg6UjJrb2n60Zih20YnleMzmwP1sS
lCgjY7thp7xxW8kp1sNdnsJ0IvnDBzcy1lwGFZ0dDc/aG+sP1PrfnnMO70uUnZ6+
qbZgPQLsfb0Uea7pKD+V2qh1pNoRtKjCq6+24EIsSjDlF+/nik6hEhH5pUplh5x0
NBmjS/yhWbSEr2pqKPlKt7dKLE73n3jDSdLd/xo5/f14W5JFpnr+7zb0Syx1d1W9
YZKTqny/syXL5mU+BcDJgi69Q67mRJcRmGsURwL8p+Pc+pJkFGViin3G9O5FCwcQ
1gHkc01ZiPCDoqozcnJrXi0NN89yBBAbfLeTcTPDzZg9cSt+1g7fBhOg8FeOTIsy
1a/SCt+KxDB9fEP/Lo+EZx9Bej7C1HNJVdT9MBUusC623sedryUA1ovrB1bvaGfz
q7rl+kq1/7uqpXvEYOOZbYhZQk28fdM5kXirtQvzG6lYZIoq4bW/TPUVo/i42aeM
mp1ouhcBe0mqKLHq5pzVwKNE+TmAIuvAWQLg0n+4MwRhddtbFgkrBgEEAdpHDwEB
B0BaQIUgTn7LHv0JuD7n+kUlb2tR7enTyjKYEnDDzPCE7YjvBBgWCgAgFiEEVsPn
decrDIscDBvQtdt3QJsRtgEFAmF121sCGwIAgQkQtdt3QJsRtgF2IAQZFgoAHRYh
BATXohmwq+TCtipeZUordYYx4f2RBQJhddtbAAoJEEordYYx4f2RJpIBANe20eie
mWYnMC5IqRfiBwSC7oJLuZSmVbV3tY9eq3bgAP91RAszJK1gMIdUTAOgFezhMtjC
9urL3Hb3CX3Ah4DnA3DDAP9ndfJ06vtTRsJEZ33N+Pj/npu2Sl/MQBY5nZqsXIjt
HAD9Em0bMO1K9KBxuBAxVFsUfpiuGyBshEKAwc4BbQgJSwW4MwRhdduCFgkrBgEE
AdpHDwEBB0CK0vPOfF6rPkbMTaVTSnaQgGHW07XpdRtvDEAVciEHvIh4BBgWCgAg
FiEEVsPndecrDIscDBvQtdt3QJsRtgEFAmF124ICGyAACgkQtdt3QJsRtgGfNQD/
URQ7dm2YyN2Cv/LOXJvAI5Mx7ksfxCMsatbNP3HebmkBAP7qSiJ9eiPgS/ms5NoL
l8/9E22O/tzowBLzHc6CqQ4HuDgEYXXaPRIKKwYBBAGXVQEFAQEHQHuYOepdZ6k/
ZhR8bsReQU4ABOJKuQXetKeJdkPU1LhfAwEIB4h4BBgWCgAgFiEEVsPndecrDIsc
DBvQtdt3QJsRtgEFAmF12j0CGwwACgkQtdt3QJsRtgEVYAD/big6ZiH/jvbHBMpr
29iUsVX86kII8ya9dGjjL69CkaEBAM16MvClGi86N/Pe/avYhsCVkvT34mQJmwY7
VhGJezoN
=OJjh
-----END PGP PUBLIC KEY BLOCK-----
