/* XPM */
static char * coco-coq_xpm[] = {
"24 24 8 1",
" 	c None",
".	c #7F0000",
"+	c #00FFFF",
"@	c #969696",
"#	c #4D4D4D",
"$	c #FFFF00",
"%	c #FF5050",
"&	c #800000",
"                        ",
"     ..                 ",
"     ....               ",
"     ++..@              ",
"     ++++++             ",
"     ++++++++           ",
"     ######$$           ",
"     ####$$$$$$         ",
"     ####$$$$           ",
"     ##$$$$$            ",
"      @$$$              ",
"       %%%              ",
"     %%%%%              ",
"     %%%%%%             ",
"     %%$$%%             ",
"     %%$$%%@            ",
"     %%$$%%@            ",
"     %%$$%%@            ",
"     %%$$$$@            ",
"     %%&&$$$$           ",
"     &&&&&&$$           ",
"     ++++++@@           ",
"     ++++++@            ",
"                        "};
