-----BEGIN PGP SIGNATURE-----

iQIzBAABCgAdFiEEmi//dHmU4oe+xCLxX0NADCHL+swFAmkA7r4ACgkQX0NADCHL
+syiOw//eqnd4kGuGBjoGghGDtcV2tkpBzuaYfpDuI2y2ZHRaivAaPC6WZpl7SDD
zfE2rE0qbm4AZI1xzFiGv9WXOmb5kY3kUZkqKaldLReolUwZYzi8dd27lvz1V7W0
Vr/mwmP6Ev9woGN9JfQhD56QKq4WDTnJ01YSIENBzrcB9VLvKWNfNVdoy3HhnKkJ
LzOEFzkP7Wr+WGOCPROwgSf3HPXsggzlE2CeNYIlCbd70xioE7DcJ8Azr2hyp/sb
80DltnkTa41xgpGGbKtxAzSiyk4BhG+kIQia6piycKUiSp1jRJ7rqxXPm3zdwlLt
YI7du3/8XKQJlcHsvEDZDrOfmlbQ4zxLZiPJc5/P3RTZ7nLkwmr9z54ikl/liKd+
TbMgLGwrXJXojav8wSo2ikyS76sKPQxVB/bXzha9+inJPg3R5z8eca3QSUZ7P1rC
gShi3LR9v2dXTCT6+4LLzuNcuO7Z/WJz12XQ3m8Qq/6itN755asVp5+tQ6G9ToAx
ApAdqGg384iVKLjhfoSohvuhvJAO8E2spzU+84N7UjjEv+XrNBkBkU+nchIp42Ob
bD6DVb9uUuDXpnSxFATQ8qLJ+tqnAl1lQlzxDR4S6zCPO+xvJxn2dxatrVFqdRaA
YBbangPnPN2pV+MHdSLRgPnZdWRk9PzON4p5+PcVCmgRbR8ZztU=
=5kku
-----END PGP SIGNATURE-----
